X:1
T:from " Tafelmusic, Part II No.2 "
T:Georg Philipp Telemann (1681 - 1767)
T:Sonata in D minor, TWV 43:d1
T:Transcribed for Recorder Quartet from IMSLP#45930 PDF File
%%score [ 1 2 3 4 ]
L:1/8
Q:1/4=56
M:4/4
K:F
V:1 treble+8 nm="Soprano Rec." snm="S."
V:2 treble nm="Alto Rec." snm="A."
V:3 treble nm="Tenor Rec." snm="T. "
V:4 bass+8 nm="Bass Rec." snm="B."
V:1
"^1. Andante" dA GF/E/ (F/E/)D z ^C | (D/E/)F z A- A(F/E/) F/D/.A | .A.A.A.A z (A/G/) A/G/.c | %3
 .c.c.c.c z cfe | d/e/d/^c/ dd- dded | T^c>c de A2 z A | d(d/^c/) d/f/e/d/ cE A2- | A2 TG2 A2 z2 | %8
 z8 | Ae dc/=B/ (c/B/)A z ^G | A/4=B/4c/^G/B/ A/c/G/B/ (A/G/)A z B | %11
 c/4d/4e/=B/d/ c/e/B/d/ (c/B/)c z2 | z cfe dD z =B- | B=B,AT^G A2 z =B | %14
 A(c/=B/) A(d/e/4f/4) TB2 z ^G | A(A/^G/) A/c/=B/A/ G(A/G/) (G/A/)(A/G/) | %16
 z4 z (=B/A/) (A/^G/)(G/A/) | A/(=B/4A/4B/)c/ T^G>A A2 z E | T^C2 z A- A/F/F/D/ D/^F/F/A/ | %19
 A/c/c/_e/ e/d/d/c/ (B/A/)G z2 | z4 z2 z d- | d/B/B/G/ G/D/D/B/ B/G/G/D/ D/B,/B,/B/ | %22
 B2 z G TE2 z G | F/(F/4G/4A/)F/ A/G/F/E/ F/(A/4B/4c/)A/ c/B/A/G/ | A>B TG>F F2 z c- | %25
 c/A/A/F/ F/C/C/c/ d>_e Tc>B | B2 z/ B,/D/B,/ FF z/ ^F/D/F/ | GG z/ G/B/G/ DD z/ D/=F/D/ | %28
 ^CD CD A,C DC | DD^CD A,2 z2 | dA GF/E/ (F/E/)D z ^C | (D/E/)F z A- A(F/E/) F/D/.A | %32
 .A.A.A.A z (A/G/) A/G/.c | .c .c .c .c z cfe | d/e/d/^c/ dd- dded | T^c>c de A/(d/4c/4d/)e/ Tc>d | %36
 d(B/A/) (A/^G/)(G/A/) z (A/=G/) (G/^F/)(F/G/) | z (G/=F/) (F/E/)(E/F/) FA z A | %38
 z/ A/G/(F/4E/4) F/D/G/(F/4E/4) FA z A | z/ G/F/G/ TE>D D2 z A | d(d/^c/) d/f/e/d/ cE A2- | %41
 A2 TG2 A2[Q:1/4=45]"^45" z2 |][M:3/4][Q:1/4=120]"^2. Vivace" z6 | z6 | z6 | z6 | z6 | z6 | z6 | %49
 z6 | z6 | z6 | z6 | z6 | z6 | z6 | z6 | z6 | z6 | z6 | z6 | z6 | z6 | z6 | z6 | z6 | z6 | %67
 D/F/A/F/ D/F/D/F/ D/F/A/F/ | D/G/B/G/ D/G/D/G/ D/G/B/G/ | D/E/F F/G/A A/^c/d- | dc/B/ AG FE | %71
 F/G/F/E/ D2 z2 | z2 z4 | D/F/A/F/ D/F/D/F/ D/F/A/F/ | D/G/B/G/ D/G/D/G/ D/G/B/G/ | %75
 D/E/F F/G/A A/^c/d- | dc/B/ AG FE | F/G/F/E/ DF B/A/G/F/ | G/A/G/F/ EG c/B/A/G/ | A2 A/G/A/B/ cF | %80
 z2 E/D/E/F/ GC | z2 B/A/B/c/ dG | z2 ^F/E/F/G/ AD | d/c/B/A/ G A2 G/F/ | %84
 E/G/c/G/ E/G/E/G/ E/G/c/G/ | c/B/A/G/ F G2 F/_E/ | D/F/B/F/ D/F/D/F/ D/F/B/F/ | %87
 E/G/B/G/ E/G/E/G/ E/G/B/G/ | C/F/A/F/ C/F/C/F/ C/F/A/F/ | C/F/G/F/ C/F/C/F/ C/F/G/F/ | %90
 C/E/G/E/ C/E/C/E/ C/E/G/E/ | c/B/A/G/ F d2 c/B/ | c/B/A/G/ F B2 A/G/ | %93
 A/F/E/F/ C/F/E/F/ A/F/E/F/ | c/F/E/F/ A,/F/E/F/ c/F/E/F/ | d2- dc/B/ cB/A/ | B2- BG/A/ B/c/d/e/ | %97
 f e2 d/c/ de/d/ | c/d/e/f/ g B2 A/G/ | AG/F/ cF CE | F2 z4 | z6 | z6 | z6 | z6 | z2 z4 | %106
 z C EG (c/d/)c/=B/ | cC EG (c/d/)c/=B/ | c _e2 A/B/4c/4 DA | (B/c/)d/.A/ (B/c/)d/.A/ BG, | z2 z4 | %111
 z2 z4 | z D FA (d/e/)d/^c/ | dD FA (d/e/)d/^c/ | d f2 =B/c/4d/4 EB | %115
 (c/d/)e/.=B/ (c/d/)e/.B/ cA, | z2 z4 | z2 z4 | z/ A/^G/A/ e/A/G/A/ c/=B/c/d/ | %119
 =B/G/^F/G/ d/G/F/G/ B/A/B/c/ | A/F/E/F/ c/F/E/F/ A/^G/A/=B/ | E/^G/=B/G/ E/G/E/G/ E/G/B/G/ | %122
 E/A/c/A/ E/A/E/A/ E/A/c/A/ | E/=B/d/B/ E/B/E/B/ E/B/d/B/ | (e/c/) A4 z | (A/F/) D4 z | %126
 (d/=B/) G4 z | (G/E/) C4 z | e/f/d/e/ fF eE | d/c/=B/c/ dG BG | d/e/c/B/ eE dD | c/=B/A/B/ cF AF | %132
 c/d/=B/c/ dD cC | =B/c/d/e/ f2 z2 | e/f/e/^d/ e2 z2 | d/e/d/^c/ d2 z2 | c/=B/c/d/ eA BA/^G/ | %137
 A f2 e/^d/ e^G | A f2 e/^d/ e^G | A/A/^G/A/ F/A/G/A/ E/A/G/A/ | D/A/^G/A/ E/A/G/A/ D/A/G/A/ | %141
 C/=B,/C/A,/ E/D/E/C/ A/^G/A/E/ | c/=B/c/A/ eA E^G | AE/C/ A,2 z2 | z2 z4 | z2 z4 | z2 z4 | z2 z4 | %148
 D/F/A/F/ D/F/D/F/ D/F/A/F/ | D/G/B/G/ D/G/D/G/ D/G/B/G/ | D/E/F F/G/A A/^c/d- | dc/B/ AG FE | %152
 F/G/F/E/ FA T^F2 | G/A/G/^F/ G=B T^G2 | A4- A2- | A4- A2- | A4- A2- | A2 z A d/c/=B/A/ | %158
 =B/c/B/A/ GB e/d/^c/B/ | ^c/d/c/=B/ Ae f/e/d/c/ | d2- dA f/e/d/^c/ | %161
 d/e/d/=B/ c/d/c/A/ _B/c/^A/^G/ | A/=B/A/^F/ G/A/G/E/ =F/G/F/D/ | _e2- ed/^c/ d=e | Ad/^c/ dD TE2 | %165
 D2 z4 | z6 | z6 | z2 z4 | A/F/ D4 z | B/G/ E4 z | .c/A/ F4 z | .d/B/ G4 z | ^c/d/ e2 A fd | %174
 ^c/d/ e2 A fd | G2 G2 G2 | g4 z2 | fe/f/ de A^c | d B2 A/^G/ A^C | D B2 A/^G/ A^C | %180
 D/d/^c/d/ B/d/c/d/ A/d/c/d/ | G/d/^c/d/ A/d/c/d/ G/d/c/d/ | F/G/E/F/ G/A/F/G/ A/B/G/A/ | %183
 BA/G/ Ad E^c | d2 z4 | z6 | z6 | z6 | z6 | z6 | z6 | z6 | z6 | z6 | z6 | z6 | z6 | z6 | z6 | z6 | %200
 z6 |][M:6/8][Q:3/8=32]"^3. Largo" z | z6 | z (A/4=B/4c/) (c/4B/4A/) (A/4B/4c/) c z | z6 | %205
 z (c/4d/4e/) (e/4d/4c/) (c/4d/4e/) e z | z6 | z6 | z6 | z6 | z6 | z6 | z2 z z z G | %213
 (c>d)e Tc>=Bc | G3 z z c | (F>G)A (G>A)F | TE>DC z z =B | (c>d)e (c>d)=B | %218
 ce/c/d/=B/ (c/4d/4c/4B/4 c/)A/c/A/ | (=B>c)d (B>c)A | =Bd/B/c/A/ (B/4c/4B/4A/4 B/)G/B/G/ | %221
 (c/4d/4c/4=B/4 c/)G/c/G/ (d/4e/4d/4c/4 d/)G/d/G/ | e>dc =B>cA | Gd/=B/e/c/ (cd) z | %224
 z (=B/G/)(A/^F/) (FG/)E/F/^D/ | (^DE) z z2 z | z E/^F/G/E/ ^C/G/F/G/A/F/ | %227
 ^D/^F/G/A/=B/G/ E/B/A/^G/A- | A/=B/c/^G/A- A/B/c/G/A/e/ | !fermata!Te2 | %230
[Q:1/4=48] z e=B/A/ G/^F/ | EG=B- BE/^F/E/^D/ | E=B/G/A/^F/ (G/F/)E z | z4 z E | A>=Bc TA>^GA | %235
 z6 | z (c/4d/4e/) (e/4d/4c/) (c/4d/4e/) e^C | D>EF TD>^CD | TC3 z2!mp! ^C | D>EF TD>^CD | %240
 T^C3 z2 z | z6 | z!f! A/F/G/E/ (F/4G/4F/4E/4 F/)D/F/D/ | z6 | z G/E/F/D/ (E/4F/4E/4D/4 E)=B | %245
 c>de c>d=B | ce/c/d/=B/ (c/4d/4c/4B/4 c/)A/c/A/ | %247
 (d/4e/4d/4^c/4 d/)A/d/A/ (e/4f/4e/4d/4 e/)A/e/A/ | f>ed c>d=B | A2 z2 c/A/d/=B/ | %250
 (=Bc) z2 c/A/B/^G/ | (^GA/)=B/c/A/ ^F/c/B/c/d/B/ | ^G/=B/c/d/e/c/ A/e/d/^c/d- | %253
 d/e/f/^c/d- d/e/f/c/d/>d/ | !fermata!d2 z4 | z2 z Ae/d/c/=B/ | A/=B/c/A/TB A/E/A, z | %257
 A/=B/c/A/TB A/(c/4d/4e/)c/A/c/ | E/(A/4=B/4c/)A/E/A/ C/E/A/E/C/E/ | A,3 z2 z |] %260
[M:4/4][Q:1/4=112]"^4. Allegro" AddA d/^c/d/e/ fd | z8 | B/c/A/B/ G/A/F/G/ A/B/G/A/ F/G/A/B/ | %263
 cffc A/G/A/B/ cA | GccG c/=B/c/d/ ec | AddA d/^c/d/e/ fd | z8 | %267
 B/c/A/B/ G/A/F/G/ A/B/G/A/ F/G/E/F/ | G/A/F/G/ E/F/D/E/ FA Ad/^c/ | dAdA df/e/ fd/^c/ | %270
 d=c/B/ A/G/F/E/ D2 z2 | z4 deA^c | df/e/ fd/^c/ d=c/B/ AG!dacoda! | F2 TE2 D || z2 z | z8 | z8 | %277
 z8 | z4 EAA^c | ^c/A/c/d/ ec z2 z2 | G/A/B/=c/ dB z2 z2 | F/G/A/B/ cA z2 z2 | z8 | z8 | z8 | z8 | %286
 z8 | AccA F/E/F/G/ AF | z8 | z8 | z8 | z8 | z4 GEEG | E/D/E/F/ GE z2 z2 | E2 A2 T^G3 A | %295
 =B2 e2 Tc>B A-A | f2 e2 d2 c-c | =B2 c>A T^G2 z2 | z4 e2 T^c2 | (d3 e/f/) d2 T=B2 | c2 z2 e2 E2 | %301
 F2 d4 c2- | c2 =BA T^G2 A-A | f6 ed | cd e4 d2- | d=Bcd TB3 A | A4 z2 A2- | ADGA T^F3 G | %308
 GBBd B/A/B/c/ dB | z8 | AFFA F/E/F/G/ AF | AddA d/^c/d/e/ fd | z8 | %313
 B/c/A/B/ G/A/F/G/ A/B/G/A/ F/G/A/B/ | cffc A/G/A/B/ cA | GccG c/=B/c/d/ ec | AddA d/^c/d/e/ fd | %317
 z8 | B/c/A/B/ G/A/F/G/ A/B/G/A/ F/G/E/F/ | G/A/F/G/ E/F/D/E/ FA Ad/^c/ | dAdA df/e/ fd/^c/ | %321
 d=c/B/ A/G/F/E/ D2 z2 | z4 deA^c | df/e/ fd/^c/ d=c/B/ AG | F2 TE2 D2 z2 ||[K:D] z8 | %326
 z4 z/ D/F/A/ dD | z8 | z4 z/ A/c/e/ aA | z/ A/F/A/ d/A/F/D/ z/ D/F/A/ d/A/F/D/ | %330
 z/ d/B/d/ g/b/g/d/ z/ d/B/d/ g/b/g/e/ | z/ e/c/e/ a/e/c/A/ z/ f/d/f/ b/f/d/B/ | z8 | z8 | %334
 z4 z F/E/ D/E/F/G/ | AF- (3F/G/A/(3G/A/B/ AF- (3F/G/A/(3G/A/B/ | Ad TG2 F2 z2 | %337
 GE- (3E/F/G/(3F/G/A/ GE- (3E/F/G/(3F/G/A/ | GA TF2 E2 z2 | z8 | z4 z cB^A | B ^A3 Bc/d/ cA | %342
 B ^A3 Bc/d/ cA | B/c/ d2 c B/c/ d2 c | B^A/B/ cA B=AGF | G F3 GA/B/ AF | G F3 GA/B/ AF | %347
 G/A/ B2 A G/A/ B2 A | GF/G/ AF E2 z2 | z4 z2 z z | z4 z/ A/c/e/ aA | z8 | z4 z/ E/^G/B/ eE | %353
 z4 e4- | e2 A2 d4- | d2 ed c4- | cF B3 EA-A- | A^G/F/ GA BA/G/ A2- | A2 T^G2 A2 z2 | z8 | %360
 z/ F/D/F/ BA ^GeEe | z eee EeEe | z eee EeEe | z8 | z8!D.C.! ||O =F2 TE2 D3 z |] %366
V:2
 z4 d'a gf/e/ | (f/e/)d z ^c d2 z e | (f/4g/4a/)e/g/ f/a/e/g/ (f/e/)f z g | %3
 a/4b/4c'/g/b/ a/c'/g/b/ (a/g/)a z a | d'd z d g/a/g/^f/ gg- | gbag =fd a2- | a2 Tg2 a2 z ^c | %7
 d(f/e/) d(g/a/4b/4) Te2 z2 | Ae d=c/=B/ (c/B/)A z ^G | (A/=B/c) z e- e(c/B/) (c/A/).e | %10
 .e.e.e.e z (e/d/) (e/c/).g | .g.g.g.g z gc'=b | a/=b/a/^g/ aa- aaba | (T^g>g) a=b e2 z e | %14
 a(a/^g/) a/c'/=b/a/ =g=B e2- | e2 Td2 e(f/e/) (e/^d/)(d/e/) | %16
 z (e/=d/) (d/^c/)(c/d/) z (d/=c/) (c/=B/)(B/c/) | c/(d/4c/4d/)e/ T=B>A A2 z a | A2 z e dA z a | %19
 ^f2 z a g/(g/4a/4b/)g/ b/a/g/f/ | g/(B/4c/4d/)B/ d/c/B/A/ B/d/g/a/ T^f>g | %21
 gd'- d'/b/b/g/ g/d/d/B/ z g- | g/e/e/c/ c/e/e/g/ g/b/b/d'/ d'/c'/c'/b/ | %23
 (a/g/)f z2 z/ (f/4g/4a/)f/ a/g/f/e/ | f/c/f/g/ Te>f fc'- c'/a/a/f/ | %25
 f/c/c/a/ a/f/f z/ f/B/g/ T_e>d | d/B/d/f/ bb z/ b/a/g/ aa | z/ a/g/^f/ gg z/ g/=f/e/ fa | %28
 z a z a z/ a/g/f/4e/4 f/d/g/f/4e/4 | fa z a z/ ^c/c/e/ (e/d/)(d/c/) | d2 z2 d'a gf/e/ | %31
 (f/e/)d z ^c d2 z e | f/4g/4a/e/g/ f/a/e/g/ (f/e/)f z g | a/4b/4c'/g/b/ a/c'/g/b/ (a/g/)a z a | %34
 d'd z d g/a/g/^f/ gg- | gbag- g/=f/4e/4f/g/ Te>d | d2 z e e2 z d | %37
 dd' z a- a/A/f/e/4d/4 e/A/f/e/4d/4 | ea z a z/ a/f/e/4d/4 e/A/f/e/4d/4 | e/e/d/e/ T^c>d d2 z e | %40
 df/e/ d(g/a/4b/4) Te2 z ^c | dd/^c/ d/f/e/d/ Tc2 z2 |][M:3/4] a/f/ d4 z | e/^c/ A4 z | %44
 d/^c/d/e/ ff f/e/f/g/ | e/d/e/f/ gg g/f/g/a/ | f/g/ a2 g2 f- | fe/d/ ef/d/ e/f/g/e/ | %48
 f/g/ a2 g2 f- | fe/d/ ef/d/ eA | a/^f/ d4 z | d/B/ G4 z | g/e/ c4 z | c/A/ F4 z | a/b/g/a/ bB aA | %55
 g/f/e/f/ gc ec | g/a/f/g/ aA gG | f/e/d/e/ fB dB | f/g/e/f/ gG fF | e/f/g/a/ b2 z2 | %60
 a/b/a/^g/ a2 z2 | g/a/g/^f/ g2 z2 | f/e/f/g/ ad ed/^c/ | d/e/^c/d/ eE dD | ^c/=B/A/B/ cA ec | %65
 d/^c/d/e/ fa gf/e/ | ad'/^c'/ d'd A^c | d2 z4 | z6 | z6 | z2 z4 | d/^c/d/e/ ff f/e/f/g/ | %72
 e/d/e/f/ gg g/a/g/e/ | a/f/ d4 z | z2 z4 | A/F/ D4 z | z6 | z6 | z2 z4 | c'/a/ f4 z | .g/e/ c4 z | %81
 z6 | z6 | z2 z4 | z .g .c'.g .c'.g | z2 z4 | z .f .b.f .b.f | z .e .b.g .b.e | z .f .a.f .a.f | %89
 z .f .g.f .g.f | z .e .g.e .g.e | z6 | z6 | z6 | z6 | z6 | z6 | z6 | z6 | z2 z4 | %100
 f/e/f/g/ aa a/g/a/b/ | g/f/g/a/ bb b/a/b/c'/ | a/b/ c'2 b2 a- | ag/f/ ga/f/ g/a/b/g/ | %104
 a/b/ c'2 b2 a- | ag/f/ ga/f/ gc | z2 z4 | z2 z4 | z2 z4 | z2 z4 | c'/d'/b/c'/ d'd c'c | %111
 b/c'/b/a/ bB bB | z2 z4 | z2 z4 | z2 z4 | z2 z4 | d'/e'/c'/d'/ e'e d'd | c'/d'/c'/=b/ c'c c'c | %118
 z2 c z ^f z | z2 .d2 .e2 | z2 .c2 .d2 | z .e .^g.e .=b.e | z .e .a.e .c'.e | z .e .^g.e .=b.e | %124
 z2 e/d/c/=B/ Ae | z2 f/e/d/^c/ da | z2 d/c/=B/A/ Gd | z2 e/d/c/=B/ cg | c'/d'/=b/c'/ d'd c'c | %129
 =b2 z4 | =b/c'/a/b/ c'c b=B | a2 z4 | a/=b/^g/a/ b=B aA | %133
 a/4^g/4a/4g/4a/4g/4a/4g/4 z =b/c'/ d'c' | c'/4=b/4c'/4b/4c'/4b/4c'/4b/4 z b/c'/ ba | %135
 a/4^g/4a/4g/4a/4g/4a/4g/4 z g/a/ =bg | a2 z4 | z2 z4 | z2 z4 | z2 z4 | z2 z4 | z2 z4 | z2 z4 | %143
 z z2 A/G/ FE | a/f/ d4 z | e/^c/ A4 z | d/^c/d/e/ ff f/e/f/g/ | e/d/e/f/ gg g/a/g/e/ | a/f/ d4 z | %149
 z2 z4 | A/F/ D4 z | z6 | z6 | z2 z4 | z2 aA gG | f e2 f/g/ fe | f/e/f/g/ aA gG | fe/d/ e2 z2 | %158
 z6 | z6 | z6 | z6 | z6 | z6 | z2 z4 | f/g/ a2 g2 f- | fe/d/ ef/d/ e/f/g/e/ | f/g/ a2 g2 f- | %168
 fe/d/ ef/d/ eA | z2 a/g/f/e/ da | z2 b/a/g/f/ eb | z2 c'/b/a/g/ fc' | z2 d'/c'/b/a/ gd' | %173
 z2 ^c/d/e Af | z2 ^c/d/e Af | db/a/ g/a/g/f/ e/f/e/d/ | T^c2 z4 | z6 | z6 | z6 | z6 | z6 | z6 | %183
 z2 z4 | z/ A/=B/^c/ d/c/d/e/ f/e/f/g/ | a/b/g/a/ bB aA | g/f/e/f/ gc ec | g/a/f/g/ aA gG | %188
 f/e/d/e/ fB dB | f/g/e/f/ gG fF | e/d/^c/d/ eA cA | f/g/f/e/ fA dA | g/a/g/^f/ gA eA | %193
 ad'/^c'/ d'd A^c | d z f z e z | ad'/^c'/ d'd A^c | g/a/g/^f/ g2 z2 | f/e/f/g/ ad ed/^c/ | %198
 d z F z A z | D/E/F/G/ Ad GA | D4 z2 |][M:6/8] e | a>=bc' Ta>^ga | e3 z z a | d>ef e>fd | %205
 Tc>=BA z z e | f>ga f>ge | fa/f/g/e/ f/4g/4f/4e/4 f/d/f/d/ | e>fg e>fd | %209
 eg/e/f/d/ e/4f/4e/4d/4 e/c/e/c/ | f/4g/4f/4e/4 f/c/f/c/ g/4a/4g/4f/4 g/c/g/c/ | a>gf e>fd | %212
 cg/e/a/f/ (fg) z | z6 | z (e/4f/4g/) (g/4f/4e/) (e/4f/4g/) g z | z6 | %216
 z (c/4d/4e/) (e/4d/4c/) (c/4d/4e/) e z | z6 | z c'/a/=b/^g/ a/4b/4a/4g/4 a/e'/a | z6 | %220
 z =b/g/a/^f/ g/4a/4g/4f/4 g/d'/g | z z g- gg'g- | gc'/=b/a g>aT^f | g3 z d/=B/e/c/ | %224
 (cd/)=B/c/A/ (AB) z | z =b/g/a/^f/ (fg/)e/f/^d/ | (^de) z z2 z | z2 z z z e | ^d z e d z e | %229
 !fermata!^f2 | z z2 z | z2 z e'=b/a/g/^f/ | e/^f/g/e/Tf e/=B/ Ee | a>=bc' Ta>^ga | e3 z2 a | %235
 d>ef e>fd | Tc>=BA z2 a | b>c'd' Tb>ab | a(b/a/)(a/^g/) (ga)!mp!a | b>c'd' Tb>ab | %240
 a(b/a/)(a/^g/) (ga)!f!e | f>ga f>ge | f3 z2 f | e>fg e>fd | e3 z2 ^g | a>=bc' a>b^g | a3 z2 a- | %247
 aAa z2 a- | ad'/c'/=b a>bT^g | ac/A/d/=B/ (Bc) z | z c'/a/=b/^g/ (ga/)c/d/=B/ | (=Bc) z4 | %252
 z4 z a | ^g z d =b z a | !fermata!T^g2 z ae/d/c/=B/ | Ace- eA/=B/A/^G/ | AaT^g ae/c/f/d/ | %257
 ee/c/d/=B/ c2 z | e2 z e3- | e3 z2 z |][M:4/4] faaf ad'/^c'/ d'a | %261
 b/c'/a/b/ g/a/f/g/ a/b/g/a/ f/g/e/f/ | g/a/f/g/ e/f/d/e/ f2 z2 | ac'c'a f/e/f/g/ af | %264
 egge gc'/=b/ c'g | faaf ad'/^c'/ d'a | b/=c'/a/b/ g/a/f/g/ a/b/g/a/ f/g/e/f/ | %267
 g/a/f/g/ e/f/d/e/ f/g/e/f/ d/e/^c/d/ | e/f/d/e/ ^c/d/=B/c/ df/e/ fa | af/e/ fa ad'/^c'/ d'a | %270
 a2 z2 d'=c'/b/ a/g/f/e/ | d2 z2 agfe | da af/e/ f2 z e | d2 T^c2 d || z2 z | z8 | z8 | z8 | %278
 z4 A^cce | a/e/a/=b/ ^c'a z2 z2 | dg/a/ _bg z2 z2 | cf/g/ af z2 z2 | z4 c'2 c2 | d2 b4 a2- | %284
 a2 gf ef g2- | g2 f_e d=e/f/ ed | cefd Te3 f | f2 z2 z2 z2 | ceeg e/d/e/f/ ge | c2 f2 Te3 f | %290
 g2 c'2 Ta>g f2 | d'2 c'2 b2 a2 | g2 a>f Te2 z2 | z4 e2 a2 | (^g3/2a/4=b/4) e2 z2 z2 | z8 | z8 | %297
 z4 e=bb^g | e/^d/e/^f/ ^ge z2 z2 | d/e/=f/=g/ af z2 z2 | c/d/e/f/ ge z2 z2 | z4 e'2 e-e | %302
 f2 d'4 c'2- | c'2 =ba ^g2 b2- | b2 a=g fe fg/f/ | e^ga=b Tg3 a | acce c/=B/c/d/ ec | z8 | %308
 z4 z2 g2- | gcfg Te3 f | fAAc A/G/A/B/ cA | faaf ad'/^c'/ d'a | %312
 b/c'/a/b/ g/a/f/g/ a/b/g/a/ f/g/e/f/ | g/a/f/g/ e/f/d/e/ f2 z2 | ac'c'a f/e/f/g/ af | %315
 egge gc'/=b/ c'g | faaf ad'/^c'/ d'a | b/c'/a/b/ g/a/f/g/ a/b/g/a/ f/g/e/f/ | %318
 g/a/f/g/ e/f/d/e/ f/g/e/f/ d/e/^c/d/ | e/f/d/e/ ^c/d/=B/c/ df/e/ fa | af/e/ fa ad'/^c'/ d'a | %321
 a2 z2 d'c'/b/ a/g/f/e/ | d2 z2 agfe | da af/e/ f2 z e | d2 T^c2 d2 z2 || %325
[K:D] af- (3f/g/a/(3g/a/b/ af- (3f/g/a/(3g/a/b/ | ad' Tg2 f2 z2 | %327
 ge- (3e/f/g/(3f/g/a/ ge- (3e/f/g/(3f/g/a/ | ga Tf2 e2 z2 | a6 d2 | b6 e2 | c'6 d'd | g3 a Tf3 g | %333
 Te3 f gf/e/ ag | Te4 d2 z2 | fd- (3d/e/f/(3e/f/g/ fd- (3d/e/f/(3e/f/g/ | fd Te2 d2 z2 | z8 | %338
 z4 z/ A/c/e/ ag | f2 z2 z/ G/B/d/ gf | e2 z2 z edc | d c3 de/f/ ec | d c3 de/f/ ec | %343
 d/e/ f2 e d/e/ f2 e | dc/d/ ec BbBb | z bbb BbBb | z bbb BbBb | z4 z2 z2 | z4 z/ e/g/b/ e'c' | %349
 cA- (3A/B/c/(3B/c/d/ cA- (3A/B/c/(3B/c/d/ | cA TB2 A2 z2 | %351
 B^G- (3G/A/B/(3A/B/c/ BG- (3G/A/B/(3A/B/c/ | B^G/A/ A2 G2 z2 | %353
 z/ A/c/e/ a/e/c/A/ z/ A/c/e/ a/e/c/A/ | z/ A/F/A/ d/f/d/A/ z/ A/F/A/ d/f/d/B/ | %355
 z/ B/^G/B/ e/B/G/E/ z/ c/A/c/ f/c/A/F/ | z8 | z8 | z4 z/ A/c/e/ ad | c2 z2 z/ d/A/d/ fe | %360
 d2 z2 z dcB | c B3 cd/e/ dB | c B3 cd/e/ dB | c/d/ e2 d c/d/ e2 d | cB/c/ dB A2 z2 || %365
 d2 Tc2 d3 z |] %366
V:3
 z8 | d'a gf/e/ (f/e/)d z ^c | d/4e/4f/^c/e/ d/4e/4f/c/e/ (d/c/)d z e | %3
 f/4g/4a/e/g/ f/a/e/g/ (f/e/)f z2 | z fba gG z e- | eEd^c d2 z e | df/e/ d(g/4a/4b/) Te2 z e | %7
 dd/^c/ d/f/e/d/ Tc2 z2 | z4 Ae d=c/=B/ | c/=B/A z ^G A2 z B | c/4d/4e/=B/d/ c/e/B/d/ (c/B/)c z d | %11
 e/4f/4g/d/f/ e/g/d/f/ (e/d/)e z e | aA z A d/e/d/^c/ dd- | dfed =cA e2- | ec/d/ Td2 e2 z =B | %15
 Ac/=B/ A(d/e/4f/4) TB2 z2 | z ^G/=B/ (B/A/)(A/G/) z4 | %17
 z2 z e- e/!wedge!c/!wedge!c/!wedge!A/ A/^c/c/e/ | e/g/g/_b/ b/a/a/g/ (f/e/)d z d' | %19
 d2 z d- d/(B/4c/4d/)B/ d/c/B/A/ | B/(g/4a/4b/)g/ b/a/g/^f/ gB/c/ TA>G | %21
 G2 z d'- d'/!wedge!b/!wedge!b/!wedge!g/ g/d/d/=f/ | eg z c' c2 z g | %23
 f/(a/4b/4c'/)a/ c'/b/a/g/ (a/g/)f z2 | z2 z c'- c'/a/a/f/ f/c/c/a/ | a/f/f/c/ c/A/A/a/ b>c' Ta>b | %26
 b2 z/ d'/f/d'/ (d'/b/)c' z/ c'/d'/a/ | (b/a/)b z/ b/g/b/ Tba z/ a/d/f/ | %28
 e/A/f/e/4d/4 e/A/f/e/4d/4 ea z a | z/ a/f/e/4d/4 e/A/f/e/4d/4 ^c/e/e/g/ g/f/f/e/ | f2 z2 z4 | %31
 d'a gf/e/ (f/e/)d z ^c | d/4e/4f/^c/e/ d/f/c/e/ (d/e/)d z e | f/4g/4a/e/g/ f/a/e/g/ (f/e/)f z2 | %34
 z fba gG z e- | eEdT^c dA/B/ AG | F2 z (=B/A/) A2 z (A/G/) | G2 z A D2 Ad | ^ce Ae z DAd | %39
 ^cA z G Fd a2- | a2 Tg2 a2 z e | df/e/ d(g/a/4b/4) Te2 z2 |][M:3/4] z2 f/e/f/g/ ad | %43
 z2 ^c/=B/c/d/ eA | z2 A=B/^c/ d/c/d/e/ | ^c/=B/c/d/ ee e/d/e/f/ | d/e/ f2 e2 d- | %47
 d^c/=B/ cd/B/ c/d/e/c/ | d/e/ f2 e2 d- | d^c/=B/ cd/B/ c2 | z2 a/g/^f/e/ da | z2 b/a/g/^f/ gG | %52
 z2 g/f/e/d/ cg | z2 a/g/f/e/ fF | f/g/e/f/ gG fF | e/d/c/d/ ec gc | e/f/d/e/ fF eE | %57
 d/c/B/c/ dB fB | d/e/^c/d/ eE dD | ^c2 z e/f/ gf | e2 z e/f/ ed | %61
 d/4^c/4d/4c/4d/4c/4d/4c/4 z c/d/ ec | d/^c/d/e/ fa gf/e/ | f/g/e/f/ gG fF | e/d/^c/d/ eA cA | %65
 f/e/f/g/ ad ed/^c/ | df/e/ f-f/g/ f/4e/4f/4e/4f/4e/4f/4e/4 | d2 z4 | z6 | z6 | z2 z4 | %71
 z2 A=B/^c/ d/c/d/e/ | ^c/=B/c/d/ ee e/f/e/c/ | d2 z4 | d/B/ G4 z | z2 z4 | z2 z4 | z2 z4 | z2 z4 | %79
 z2 z4 | z2 z4 | d'/b/ g4 z | a/^f/ d4 z | z2 z4 | z e/ z/ g/ z/ c/ z/ g/ z/ e/ z/ | z2 z4 | %86
 z d/ z/ f/ z/ B/ z/ f/ z/ d/ z/ | z B/ z/ g/ z/ B/ z/ g/ z/ G/ z/ | %88
 z c/ z/ f/ z/ A/ z/ f/ z/ c/ z/ | z c/ z/ c'/ z/ c/ z/ c'/ z/ c/ z/ | %90
 z c/ z/ e/ z/ c/ z/ e/ z/ c/ z/ | z6 | z6 | z6 | z6 | z6 | z6 | z6 | z6 | z2 z4 | %100
 z2 cd/e/ f/e/f/g/ | e/d/e/f/ gg g/f/g/a/ | f/g/ a2 g2 f- | fe/d/ ef/d/ e/f/g/e/ | f/g/ a2 g2 f- | %105
 fe/d/ ef/d/ e2 | z2 z4 | z2 z4 | z2 z4 | z2 z4 | a/b/g/a/ bB aA | g/a/g/^f/ gG gG | z2 z4 | %113
 z2 z4 | z2 z4 | z2 z4 | =b/c'/a/b/ c'c b=B | a/=b/a/^g/ aA aA | z2 c z a z | z2 =B z g z | %120
 z2 A z f z | z ^G/ z/ =B/ z/ G/ z/ ^g/ z/ G/ z/ | z A/ z/ c/ z/ A/ z/ a/ z/ A/ z/ | %123
 z ^G/ z/ =B/ z/ G/ z/ ^g/ z/ G/ z/ | z4 e/d/c/=B/ | Ad z2 f/e/d/c/ | Gg z2 d/c/=B/A/ | %127
 Gc z2 e/d/c/=B/ | c z a z A z | g z z4 | G z g z G z | f z z4 | F z f z F z | e2 z ^g/a/ =ba | %134
 a/4^g/4a/4g/4a/4g/4a/4g/4 z g/a/ g^f | e2 z =B/c/ dB | c2 z4 | z2 z4 | z2 z4 | z2 z4 | z2 z4 | %141
 z2 z4 | z2 z4 | z z2 A/G/ FE | D2 f/e/f/g/ ad | z2 ^c/=B/c/d/ eA | z2 A=B/^c/ d/c/d/e/ | %147
 ^c/=B/c/d/ ee e/f/e/c/ | d2 z4 | d/B/ G4 z | z2 z4 | z2 z4 | z2 z4 | z2 z4 | z2 fF eE | %155
 d ^c2 d/e/ dc | d/^c/d/e/ fF eE | d^c/=B/ c2 z2 | z6 | z6 | z6 | z6 | z6 | z6 | z2 z4 | %165
 d/e/ f2 e2 d- | d^c/=B/ cd/B/ c/d/e/c/ | d/e/ f2 e2 d- | d^c/=B/ cd/B/ c2 | z4 a/g/f/e/ | %170
 dg z2 b/a/g/f/ | ea z2 c'/b/a/g/ | fb z2 b/a/g/b/ | e2 A/=B/^c Dd | z2 A/=B/^c Dd | %175
 z d/c/ B/c/B/A/ GG | e4 z2 | z6 | z6 | z6 | z6 | z6 | z6 | z2 z4 | z/ z2 A/=B/^c/ d/c/d/e/ | %185
 f/g/e/f/ gG fF | e/d/c/d/ ec gc | e/f/d/e/ fF eE | d/c/B/c/ dB fB | d/e/^c/d/ eE dD | %190
 ^c/=B/A/B/ c2 z2 | d/e/d/^c/ d2 z2 | e/f/e/d/ e2 z2 | z2 z4 | ad'/^c'/ d'd A^c | d z f z e z | %196
 dD d2 z2 | d/^c/d/e/ fF GE | D z F z A z | D/E/F/G/ Ad GA | D4 z2 |][M:6/8] z | z6 | %203
 z (c/4d/4e/) (e/4d/4c/) (c/4d/4e/) e z | z6 | z (a/4=b/4c'/) (c'/4b/4a/) (a/4b/4c'/) c'^c | %206
 d>ef d>e^c | df/d/e/^c/ d/4e/4d/4c/4 d/a/d- | dc/d/e c>d=B | ce/c/d/=B/ c/4d/4c/4B/4 c/g/c- | %210
 cc'c- cc'c- | cf/e/d c>d=B | ce/c/f/d/ (de) z | z6 | z (c/4d/4e/) (e/4d/4c/) (c/4d/4e/) e z | z6 | %216
 z (e/4f/4g/) (g/4f/4e/) (e/4f/4g/) g^g | a>=bc' a>b^g | a3 z z a- | ag/a/=b g>a^f | g3 z z g- | %221
 gg'g z2 z | z6 | z =b/g/c'/a/ (ab/)=B/c/A/ | (A=B) z z =b/g/a/^f/ | (^fg/)e/f/^d/ (de/)G/A/^F/ | %226
 (^FG) z z2 z | z2 z z z A | ^f z A f z A | !fermata!a2 | z z2 z | e'=b/a/g/^f/ egb- | %232
 b=BT^d e2 z | z2 e a>=bc' | Ta>^ga e2 z | z6 | z (a/4=b/4c'/) (c'/4b/4a/) (a/4b/4c'/) c'e | %237
 f>ga Tf>ef | e3 z2!mp! e | f>ga Tf>ef | e3 z2!f! ^c | d>ef d>e^c | %242
 df/d/e/^c/ d/4e/4d/4c/4 d/a/d- | dc/d/e c>d=B | ce/c/d/=B/ c/4d/4c/4B/4c z | z6 | %246
 z c'/a/=b/^g/ a/4b/4a/4g/4 a/e'/a | z2 a- aAa | z6 | z e/c/f/d/ (de/)c/f/d/ | %250
 (de/)c/d/=B/ (Bc) z | z6 | z4 z d | =b z a ^g z d | !fermata!=b2 z4 | ae/d/c/=B/ Ace- | %256
 ee/c/d/=B/ cc/A/d/B/ | cATG A2 z | c2 z c3- | c3 z2 z |][M:4/4] dffd f/e/f/g/ af | %261
 g/a/f/g/ e/f/d/e/ f/g/e/f/ d/e/c/d/ | B z c z c2 z2 | faaf ca/g/ fc | ceec e/d/e/f/ ge | %265
 dffd f/e/f/g/ af | g/a/f/g/ e/f/d/e/ f/g/e/f/ d/e/c/d/ | B z c z c z d z | G z A z Ad/^c/ df/e/ | %269
 fd af/e/ fa af/e/ | f2 z2 z4 | d'c'/b/ a/g/f/e/ dbag | fd'/^c'/ d'a a/b/a/g/ ag | f2 Te2 d || %274
 z2 z | A2 d2 T^c3 d | e2 a2 Tf>e d2 | b2 a2 g2 f2 | e2 f>d T^c2 z2 | z4 a2 T^f2 | %280
 (g3 a/b/) g2 Te-e | f2 z2 c'2 c-c | d2 b4 a2- | a2 gf e2 f2 | d'6 c'b | ab c'4 b2- | bgab Tg3 f | %287
 faac' a/g/a/b/ c'a | egge c/=B/c/d/ ec | z8 | z8 | z8 | z4 cggc | c/=B/c/d/ ec cBcA | edcA eEe^F | %295
 ^G^FGE A=BcB | aAGg fFEe | z4 =b^ggb | ^g/^f/g/a/ =bg Eea=g | Ad/e/ =fd Ffgf | Gc/d/ ec z2 z2 | %301
 z8 | z8 | z8 | z8 | z8 | ceec A/^G/A/=B/ cA | _b3 c' Ta3 g | gddB G/^F/G/A/ BG | a3 b Tg3 f | %310
 f2 z2 z2 z z | dffd f/e/f/g/ af | g/a/f/g/ e/f/d/e/ f/g/e/f/ d/e/c/d/ | B z c z c2 z2 | %314
 faaf ca/g/ fc | ceec e/d/e/f/ ge | dffd f/e/f/g/ af | g/a/f/g/ e/f/d/e/ f/g/e/f/ d/e/c/d/ | %318
 B z c z c z d z | G z A z Ad/^c/ df/e/ | fd af/e/ fa af/e/ | f2 z2 z2 z2 | d'c'/b/ a/g/f/e/ dbag | %323
 fd'/^c'/ d'a a/b/a/g/ ag | f2 Te2 d2 z2 ||[K:D] fd- (3d/e/f/(3e/f/g/ fd- (3d/e/f/(3e/f/g/ | %326
 fd Te2 d2 z2 | ec- (3c/d/e/(3d/e/f/ ec- (3c/d/e/(3d/e/f/ | ec/d/ Td2 c2 z2 | z4 a4- | a2 d2 g4- | %331
 g2 ag f4- | fB e3 A d2- | dc/B/ cd ed/c/ fe | Tc4 d2 z2 | z8 | z4 z/ d/f/a/ d'd | %337
 ec- (3c/d/e/(3d/e/f/ ec- (3c/d/e/(3d/e/f/ | ec/d/ Td2 c2 z2 | z/ d/f/a/ d'c' b2 z2 | %340
 z/ b/c'/d'/ c'b ^afFf | z fff FfFf | z fff FfFf | z4 z2 z z | z4 z/ B/d/f/ b^d | e ^d3 ef/g/ f=d | %346
 e ^d3 ef/g/ f=d | e/f/ g2 f e/f/ g2 f | e^d/e/ f=d e2 z z | %349
 ec- (3c/d/e/(3d/e/f/ ec- (3c/d/e/(3d/e/f/ | ea Td2 c2 z2 | %351
 dB- (3B/c/d/(3c/d/e/ dB- (3B/c/d/(3c/d/e/ | de c2 B2 z2 | e6 A-A | f6 B-B | ^g6 aA | d3 e c3 d | %357
 B3 c d(c/B/) ed | TB4 A2 z2 | z/ A/c/e/ ag f2 z2 | z4 z BA^G | A ^G3 AB/c/ BG | A ^G3 AB/c/ BG | %363
 A/B/ c2 B A/B/ c2 B | A^G/A/ BG A2 z2 || =f2 Te2 d3 z |] %366
V:4
 D,F,E,A, D,F,E,A, | D,2 E,A,, D,2 z A,, | D,A,D,A, D,2 z C, | F,CF,C F,2 z F, | %4
 B,A,G,F, E,2 z E, | A,G,F,E, D,2 z C, | B,,B,,B,,B,, A,,2 z A,, | B,,4 A,,2 z2 | %8
 A,,C,=B,,E, A,,C,B,,E, | A,,2 =B,,E,, A,,2 z E,, | A,,E,A,,E, A,,2 z G,, | C,G,C,G, C,2 z C, | %12
 F,E,D,C, =B,,2 z B,, | E,D,C,=B,, A,,2 z G,, | F,,F,,F,,F,, E,,2 z E,, | F,,4 E,,2 z2 | %16
 E,2 z2 E,,2 z E, | A,D,E,D, C,A,, z A,, | A,,2 z ^C, D,D,, z D, | D,2 z ^F, G,G,,G,,D, | %20
 G,G,,G,,D, G,,/B,,/_E,/C,/ D,C, | B,,G,,G,,G,, z G,,G,,G,, | C,2 z C, C,2 z E, | %23
 F,F,,F,,C, F,F,,F,,C, | F,,/A,,/D,/B,,/ C,B,, A,,F,,F,,F,, | z F,,F,,F,, B,,/D,/G,/_E,/ F,F,, | %26
 B,,2 z2 z4 | z8 | z8 | z8 | D,F,E,A, D,F,E,A, | D,2 E,A,, D,2 z A,, | D,A,D,A, D,2 z C, | %33
 F,CF,C F,2 z F, | B,A,G,F, E,2 z E, | A,G,F,E, D,D/G,/ A,A,, | D,2 z D, ^C,2 z =C, | %37
 =B,,2 z ^C, D,D,C,D, | A,,^C,D,C, D,D,C,D, | A,D, A,A,, D,2 z C, | B,,B,,B,,B,, A,,2 z A,, | %41
 B,,4 A,,2 z2 |][M:3/4] D,2 D,E, F,B, | A,2 A,,A, G,,G, | F,2 z D, F,D, | A,2 z A, ^CA, | %46
 D2 D,2 ^C,D, | A,2 A,,A, A,,A, | D2 D,2 ^C,D, | A,2 A,,2 G,2 | ^F,2 F,D, F,D, | G,,2 G,A, B,G, | %52
 E,2 E,C, E,C, | F,,2 F,G, A,F, | D,2 B,,2 z2 | C,2 C,2 C2 | C,2 A,,2 z2 | B,,2 B,,2 B,2 | %58
 B,,2 G,,2 z2 | A,,2 z ^C/D/ ED | ^C2 z C/D/ C=B, | A,2 z A,/=B,/ ^CA, | D2 D,F, G,A, | %63
 D,2 G,,2 z2 | A,,2 A,,2 A,2 | D,2 z F, G,A, | F,A, D,G, A,A,, | D,2 z4 | z2 z4 | D,2 D,2 D2 | %70
 B,2 F,2 A,2 | D,2 z D, F,D, | A,2 z A,, ^C,A,, | F,2 z2 F,,2 | B,,2 z2 G,,2 | F,,2 z2 F,2 | %76
 F,,2 G,,2 A,,2 | D,,2 z2 D,2 | E,2 z2 E,2 | F,2 F,G, A,D | C2 C,D, E,A, | G,2 G,A, B,_E | %82
 D2 D,D C,C | ^A,2 A,2 =B,2 | C2 z4 | A,2 A,2 A,2 | B,2 z4 | G,2 z4 | A,2 z4 | C2 z4 | C,2 z4 | %91
 A,2 z B,/A,/ B,G, | A,2 z D/C/ DB, | C2 z4 | A,2 z4 | B,2 B,,B, A,,A, | G,2 G,,G, G,,G, | %97
 A,2 G,2 F,2 | E,2 z2 E,2 | F,G, A,B, CC, | F,2 z F, A,F, | C2 z C, E,C, | F,,2 F,2 E,F, | %103
 C,2 C,,C, C,,C, | F,,2 F,2 E,F, | C2 z4 | C,2 z4 | E,2 z4 | ^F,2 F,2 F,2 | G,^F, G,F, G,2 | %110
 C,2 B,,2 D,2 | G,,4 z2 | F,,2 z4 | F,2 z4 | ^G,,2 G,,2 ^G,2 | A,^G, A,G, A,2 | D,2 C,2 E,2 | %117
 A,,4 z2 | A,2 z2 A,2 | G,2 z2 G,2 | F,2 z2 F,2 | E,2 z4 | E,2 z4 | E,2 z4 | C,2 C,2 C,2 | %125
 D,2 D,2 D,2 | =B,,2 B,,2 B,,2 | C,2 C,2 C2 | A,2 F,2 z2 | G,2 G,,2 G,,2 | G,2 E,2 z2 | %131
 F,2 F,,2 F,,2 | F,2 D,2 z2 | E,2 z4 | E,,2 z4 | E,2 z4 | A,,2 C,F, D,E, | A,,2 z =B,, C,B,, | %138
 A,,2 z =B,, C,B,, | A,,2 D,2 C,2 | =B,,2 C,2 B,,2 | A,,2 z4 | A,2 C,D, E,E,, | %143
 A,,2 z A,/G,/ F,E, | D,2 D,E, F,B, | A,2 A,,A, G,,G, | F,2 z D, F,D, | A,2 z A,, ^C,A,, | %148
 F,2 z2 F,,2 | B,,2 z2 G,,2 | F,,2 z2 F,2 | G,2 A,2 A,,2 | D,2 z D, C,D,/C,/ | %153
 =B,,A,, B,,G,, E,D, | ^C,2 D,2 C,2 | D,2 A,,2 z2 | D,,2 D,2 ^C,2 | D,2 A,2 ^F,2 | G,2 z2 ^G,2 | %159
 A,2 z2 A,2 | B,2 F,A, D,E, | F,2 E,2 D,2 | ^C,2 z2 D,2 | G,,G,/^F,/ G,E, =F,G, | %164
 F,2 z F,, G,,A,, | D,,2 D,2 ^C,D, | A,2 A,,A, A,,A, | D2 D,2 ^C,D, | A,2 A,,2 G,,2 | %169
 F,,2 F,,2 F,,2 | G,,2 G,,2 G,,2 | A,,2 A,,2 A,,2 | B,,2 B,,2 B,,2 | A,,2 z4 | A,,2 z4 | %175
 B,,2 B,,2 B,,2 | A,,4 z2 | D,E, F,G, A,A,, | D,2 z E, F,E, | D,2 z E, F,E, | D,2 G,2 F,2 | %181
 E,2 F,2 E,2 | D,2 E,2 F,2 | G,E, F,F,, G,,A,, | D,,4 z2 | D,2 B,,2 z2 | C,2 C,2 C2 | C,2 A,,2 z2 | %188
 ^A,,2 B,,2 B,2 | B,,2 G,,2 z2 | A,,2 A,,2 z2 | A,,2 A,,2 z2 | A,,2 A,,2 z2 | F,E, F,B, A,G, | %194
 F,2 D,F, A,G, | F,2 D,F, A,A,, | B,,2 B,2 z2 | A,,G,, F,,B,, G,,A,, | D,, z F,, z A,, z | %199
 D,/E,/F,/G,/ A,D G,A, | D,4 z2 |][M:6/8] A,, | A,,2 A,, F,2 F, | C,3 z z C, | %204
 =B,,2 A,, ^G,,2 ^G, | A,2 A,, z z A, | D2 D, z z A, | D,DA, D,2 =B, | C2 C, z z G, | C,CG, C,2 C | %210
 A,2 A, E,2 E, | F,2 F, G,2 G,, | C,3 z z C, | C,2 C, A,2 A, | E,3 z z E, | D,2 C, =B,,2 =B, | %216
 C2 C, z z E, | A,2 A,, z z E, | A,,A,E, A,,2 ^F, | G,2 G,, z z D, | G,,G,D, G,,2 G, | %221
 E,2 E, =B,,2 B,, | C,2 C, D,2 D,, | G,,2 z G,2 z | G,,2 D, G,E,=B,, | E,2 z E,2 z | %226
 E,2 E, A,2 ^F, | =B,2 =B,, C,2 C | =B, z C B, z C | !fermata!=B,2 | z G,A, =B, | E,2 z G,2 z | %232
 G,E,=B,, E,,2 D, | C,=B,,A,, z2 A,, | C,=B,,A,, C=B,A, | =B,2 A, ^G,2 E, | A,2 A,, z2 z | z6 | %238
 z6 | z6 | z4 z!f! A, | D2 D, z2 A, | D,DA, D,2 =B, | C2 C, z2 G, | C,CG, C,C=B, | A,2 A,, z2 E, | %246
 A,,A,E, A,,2 A, | F,2 F, C,2 ^C, | D,2 D, E,2 E,, | A,,2 z A,2 z | A,,A,E, A,,2 z | %251
 A,2 A,, D,2 =B,, | E,2 E,, F,,2 F, | E, z F, E, z F, | !fermata!E,2 z C,D,E, | A,,2 z C,2 z | %256
 CA,E, A,,2 z | A,,A,E, A,,2 z | A,2 z A,,A,,A,, | A,,3 z2 z |][M:4/4] D,DDD, D,DDD, | %261
 G, z C z F, z B, z | G, z C z F,2 z2 | F,,F,F,F,, F,,F,F,F,, | C,CCC, C,CCC, | D,DDD, D,DDD, | %266
 G, z C z F, z B, z | G, z C z F, z B, z | E, z A, z D,DD,D | D,D/^C/ DD,/^C,/ D,DD,D | %270
 D,2 z2 F,2 z2 | B,2 z2 F,G,A,A,, | D,DD,D D,E,F,G, | A,G,A,A,, D, || D,F,A, | %275
 D,E,F,D, A,A,,A,=B, | ^C=B,CA, DEFE | DD,C,C B,B,,A,,A, | G,^CDD, A,2 z2 | z4 A,,A,DC | %280
 G,2 z2 B,,B,CB, | A,2 z2 F,G,A,F, | B,A,G,F, E,C,F,A, | B,A,B,G, CC, F,F,, | %284
 B,,A,,B,,G,, C,D,E,C, | F,G,A,F, B,A,G,F, | E,CF,B,, C,B,CC, | F,2 z2 z2 z2 | C,2 z2 z2 z2 | %289
 A,G,A,F, CC,CD | E,D,E,C, F,G,A,F, | B,B,,A,,A, G,G,,F,,F, | E,C,F,F,, C,2 z2 | z4 z4 | z8 | z8 | %296
 z8 | D,^G,A,A,, E,2 z2 | z4 E,E,A,G, | F,2 z2 F,F,G,F, | E,2 z2 C,=B,,C,A,, | %301
 D,C,=B,,G,, C,_B,,C,A,, | D,E,F,D, E,EA,C | D,E,F,D, EE,^G,E, | A,,=B,,C,^C, D,=C,_B,,A,, | %305
 ^G,,E,A,,D, EDEE, | A,,2 z2 z2 z ^F, | G,G,,_E,C, D,C,D,D, | G,,2 z2 z2 z E, | F,A,DB, CB,CC, | %310
 F,2 z2 z2 z z | D,DDD, D,DDD, | G, z C z F, z B, z | G, z C z F,2 z2 | F,,F,F,F,, F,,F,F,F,, | %315
 C,CCC, C,CCC, | D,DDD, D,DDD, | G, z C z F, z B, z | G, z C z F, z B, z | E, z A, z D,DD,D | %320
 D,D/^C/ DD,/^C,/ D,DD,D | D,2 z2 F,2 z2 | B,2 z2 F,G,A,A,, | D,DD,D D,E,F,G, | %324
 A,G,A,A,, D,D/^C/ DA, ||[K:D] D,2 z2 D,2 z2 | D,2 C,2 D,2 z2 | A,2 z2 A,,2 z2 | A,2 D,2 A,,2 z2 | %329
 F,F,F,F, F,F,F,F, | G,G,G,G, G,G,G,G, | A,A,A,A, B,B,B,B, | E,ECA, D,DB,G, | A,A,,G,F, E,A,F,G, | %334
 A,G,A,A,, D,2 z2 | D,2 z2 D,2 z2 | D,2 C,2 D,2 z2 | A,2 z2 A,,2 z2 | A,2 D,2 A,,2 C,A,, | %339
 D,2 z2 G,2 z2 | C,2 z2 F,2 z F, | B,,F, z2 B,,2 ^A,,F, | B,,F, z2 B,,2 ^A,,F, | %343
 B,,2 B,^A, B,B,,B,A, | B,2 E,F, B,,2 z B, | E,B, z2 E,2 ^D,B, | E,B, z2 E,2 ^D,B, | %347
 E,2 E^D EE,ED | E2 A,B, E,2 ^G,E, | A,2 z2 A,,2 z z | A,2 ^G,2 A,2 z2 | E,2 z2 E,,2 z2 | %352
 E,2 A,,2 E,2 z2 | C,C,C,C, C,C,C,C, | D,D,D,D, D,D,D,D, | E,E,E,E, F,F,F,F, | %356
 B,,B,^G,E, A,,A,F,D, | E,E,,D,C, B,,E,C,D, | E,D,E,E,, A,,2 C,B,, | A,,2 z2 D,2 D,C, | %360
 B,,2 z2 E,2 z E, | A,,E, z2 A,,2 ^G,,E, | A,,E, z2 A,,2 ^G,,E, | A,,2 A,^G, A,A,,A,G, | %364
 A,2 D,E, A,,A,/B,/ CA, || A,G,A,A,, D,3 z |] %366

